X: 7
T:Julia Delaney (Use C Whistle)
M:C
L:1/8
Z:id:dc-reel-161
K:D Minor
A | "Dm"dcAG F2DF | "C"E2CE "Dm"FEDA | dcAG F2DF |1 "Am"Add^c "Dm (Bb)"defe |2 "Am"Add^c "Dm"d3 :|
e | "Dm"fede fagf | "C"ecgc acgc | "Dm"fede fagf | "C"edcA "Dm"Adde |
"Dm"fede fagf | "C"ecgc acgc | "Dm"fedf "C"edcA | "Am"Add^c "Dm"d3 :|
